app/img/icn-vk.svg

<?xml version="1.0" encoding="UTF-8" standalone="no"?>
<svg width="36px" height="36px" viewBox="0 0 36 36" version="1.1" xmlns="http://www.w3.org/2000/svg" xmlns:xlink="http://www.w3.org/1999/xlink">
    <!-- Generator: Sketch 48.2 (47327) - http://www.bohemiancoding.com/sketch -->
    <title>icn-vk</title>
    <desc>Created with Sketch.</desc>
    <defs>
        <path d="M19.6099373,8.77693494 C19.6099373,8.77693494 22.7203373,4.38944578 23.0294169,2.94753735 C23.1323855,2.43260723 22.9058024,2.14408675 22.3701398,2.14408675 L19.671788,2.14408675 C19.0538024,2.14408675 18.8272193,2.4118747 18.641841,2.80327711 C18.641841,2.80327711 17.1829301,5.91185542 15.4078265,7.87068916 C14.8379855,8.50394217 14.5482506,8.6945253 14.233706,8.6945253 C13.9799711,8.6945253 13.8629494,8.48303614 13.8629494,7.91180723 L13.8629494,2.90633253 C13.8629494,2.2060241 13.7805398,2 13.2038458,2 L8.87812048,2 C8.54848193,2 8.34245783,2.1916241 8.34245783,2.45307952 C8.34245783,3.11261687 9.35184578,3.26156145 9.35184578,5.0485494 L9.35184578,8.73573012 C9.35184578,9.47733012 9.31064096,9.76567711 8.96044337,9.76567711 C8.03355181,9.76567711 5.82948434,6.57295422 4.5936,2.94753735 C4.34637108,2.2060241 4.07858313,2 3.37818795,2 L0.679836145,2 C0.288433735,2 0,2.2677012 0,2.65901687 C0,3.37997108 0.844568675,6.71704096 4.16099277,11.1870265 C6.38561928,14.1943711 9.31064096,15.8216578 11.9472289,15.8216578 C13.5539566,15.8216578 13.945359,15.5539566 13.945359,14.8741205 L13.945359,12.5670843 C13.945359,11.9903036 14.1719422,11.7431614 14.501494,11.7431614 C14.8722506,11.7431614 15.5266699,11.8622651 17.055759,13.3704482 C18.8684241,15.1007904 18.9920386,15.8216578 19.9808675,15.8216578 L23.0087711,15.8216578 C23.3177639,15.8216578 23.6061108,15.6774843 23.6061108,15.1625542 C23.6061108,14.4827181 22.7203373,13.2674795 21.3608386,11.8254843 C20.8047036,11.0839711 19.8983711,10.280694 19.6099373,9.90993735 C19.1980627,9.47733012 19.3215904,9.23001446 19.6099373,8.77693494" id="path-1"></path>
        <filter x="-8.5%" y="-7.2%" width="116.9%" height="128.9%" filterUnits="objectBoundingBox" id="filter-2">
            <feOffset dx="0" dy="1" in="SourceAlpha" result="shadowOffsetOuter1"></feOffset>
            <feGaussianBlur stdDeviation="0.5" in="shadowOffsetOuter1" result="shadowBlurOuter1"></feGaussianBlur>
            <feColorMatrix values="0 0 0 0 0.133333333   0 0 0 0 0.254901961   0 0 0 0 0.384313725  0 0 0 0.6 0" type="matrix" in="shadowBlurOuter1"></feColorMatrix>
        </filter>
    </defs>
    <g id="Dashboard-/-Site-Selection-/-List-/-Create-New-Site" stroke="none" stroke-width="1" fill="none" fill-rule="evenodd" transform="translate(-695.000000, -24.000000)">
        <g id="b-alt" transform="translate(430.000000, 0.000000)">
            <g id="btn-vk" transform="translate(247.000000, 0.000000)">
                <g id="icn-vk" transform="translate(18.000000, 24.000000)">
                    <rect id="BG" fill="#4D6D8F" x="0" y="0" width="36" height="36" rx="6"></rect>
                    <g id="img-logovk" transform="translate(6.000000, 9.000000)">
                        <rect id="Rectangle-2" x="0" y="0" width="24" height="18"></rect>
                        <g id="Fill-4">
                            <use fill="black" fill-opacity="1" filter="url(#filter-2)" xlink:href="#path-1"></use>
                            <use fill="#FFFFFF" fill-rule="evenodd" xlink:href="#path-1"></use>
                        </g>
                    </g>
                </g>
            </g>
        </g>
    </g>
</svg>

<svg width="36" height="36" xmlns="http://www.w3.org/2000/svg" xmlns:xlink="http://www.w3.org/1999/xlink"><defs><path d="M19.61 8.777s3.11-4.388 3.42-5.83c.102-.514-.124-.803-.66-.803h-2.698c-.618 0-.845.268-1.03.66 0 0-1.46 3.108-3.234 5.067-.57.633-.86.824-1.174.824-.254 0-.371-.212-.371-.783V2.906c0-.7-.082-.906-.66-.906H8.879c-.33 0-.536.192-.536.453 0 .66 1.01.809 1.01 2.596v3.687c0 .741-.041 1.03-.392 1.03-.926 0-3.13-3.193-4.366-6.818C4.346 2.206 4.079 2 3.378 2H.68C.288 2 0 2.268 0 2.659c0 .721.845 4.058 4.161 8.528 2.225 3.007 5.15 4.635 7.786 4.635 1.607 0 1.998-.268 1.998-.948v-2.307c0-.577.227-.824.556-.824.371 0 1.026.12 2.555 1.627 1.812 1.73 1.936 2.452 2.925 2.452h3.028c.309 0 .597-.145.597-.66 0-.68-.886-1.895-2.245-3.337-.556-.741-1.463-1.544-1.751-1.915-.412-.433-.288-.68 0-1.133" id="b"/><filter x="-8.5%" y="-7.2%" width="116.9%" height="128.9%" filterUnits="objectBoundingBox" id="a"><feOffset dy="1" in="SourceAlpha" result="shadowOffsetOuter1"/><feGaussianBlur stdDeviation=".5" in="shadowOffsetOuter1" result="shadowBlurOuter1"/><feColorMatrix values="0 0 0 0 0.133333333 0 0 0 0 0.254901961 0 0 0 0 0.384313725 0 0 0 0.6 0" in="shadowBlurOuter1"/></filter></defs><g fill="none" fill-rule="evenodd"><rect fill="#4D6D8F" width="36" height="36" rx="6"/><path d="M6 9h24v18H6z"/><g transform="translate(6 9)"><use fill="#000" filter="url(#a)" xlink:href="#b"/><use fill="#FFF" xlink:href="#b"/></g></g></svg>
